X: 33915
T: Red Skies
R: slide
M: 12/8
K: Adorian
|:AeA f2g z2a ^ged|AeA f2g G2A BAG|
AeA f2g z2a bac'|d'c'b c'2d'd'c'b c'ba:|
|:dcB c2ddce dBG|EDE GEG A2BBc2|
de=f e2ddea ged|1 AGA cAc de=f edc:|2 az2 {^g}a3 age dcB||

